Newaita-dark/apps/22/libreoffice-main.svg

<svg height="22" viewBox="0 0 22 22" width="22" xmlns="http://www.w3.org/2000/svg" xmlns:xlink="http://www.w3.org/1999/xlink"><linearGradient id="a" gradientTransform="matrix(.0511582 0 0 .0429729 -1.808356 9.239165)" gradientUnits="userSpaceOnUse" x1="254" x2="254" y1="233.5" y2="254.666672"><stop offset="0" stop-opacity=".27451"/><stop offset="1" stop-opacity="0"/></linearGradient><linearGradient id="b"><stop offset="0" stop-opacity=".313726"/><stop offset=".222222" stop-opacity=".27451"/><stop offset="1" stop-opacity="0"/></linearGradient><radialGradient id="c" cx="450.908936" cy="189.579361" gradientTransform="matrix(.00000012 -.0537161 -.0966889 -.00000007 34.702833 43.721791)" gradientUnits="userSpaceOnUse" r="21.166656" xlink:href="#b"/><radialGradient id="d" cx="450.908936" cy="189.579361" gradientTransform="matrix(-.00000012 .0537161 .0966889 .00000007 -12.872623 -5.175142)" gradientUnits="userSpaceOnUse" r="21.166656" xlink:href="#b"/><radialGradient id="e" cx="450.908936" cy="189.579361" gradientTransform="matrix(-.00000012 -.0537161 .0966889 -.00000007 -12.872623 43.721791)" gradientUnits="userSpaceOnUse" r="21.166656" xlink:href="#b"/><radialGradient id="f" cx="450.908936" cy="189.579361" gradientTransform="matrix(.00000012 .0537161 -.0966889 .00000007 34.702832 -5.175142)" gradientUnits="userSpaceOnUse" r="21.166656" xlink:href="#b"/><linearGradient id="g"><stop offset="0" stop-color="#424242"/><stop offset="1" stop-color="#616161"/></linearGradient><linearGradient id="h" gradientUnits="userSpaceOnUse" x1="10.915104" x2="10.915104" xlink:href="#g" y1="19.27332401286" y2="1.99107548985"/><linearGradient id="i" gradientUnits="userSpaceOnUse" x1="10.915104" x2="10.915104" y1="18.36373201286" y2="2.90066748985"><stop offset="0" stop-color="#e0e0e0"/><stop offset="1" stop-color="#eee"/></linearGradient><linearGradient id="j" gradientUnits="userSpaceOnUse" x1="10.91511610831" x2="10.91511610831" xlink:href="#g" y1="19.27332904588" y2="1.99106151128"/><path d="m5.230469 19.273438h11.371093v.910156h-11.371093zm0 0" fill="url(#a)"/><path d="m16.601562 19.273438h1.816407v-.910157h-1.816407zm0 0" fill="url(#c)"/><path d="m5.230469 19.273438h-1.820313v.910156h1.820313zm0 0" fill="url(#d)"/><path d="m5.230469 19.273438h-1.820313v-.910157h1.820313zm0 0" fill="url(#e)"/><path d="m16.601562 19.273438h1.816407v.910156h-1.816407zm0 0" fill="url(#f)"/><path d="m4.546875 1.992188c-.503906 0-.910156.40625-.910156.910156v15.460937c0 .503907.40625.910157.910156.910157h12.734375c.503906 0 .910156-.40625.910156-.910157v-10.347656l-6.023437-6.023437zm9.550781 0 4.09375 4.09375v-3.183594c0-.503906-.40625-.910156-.910156-.910156zm0 0" fill="url(#h)"/><path d="m5.003906 2.902344c-.253906 0-.457031.199218-.457031.453125v14.554687c0 .25.203125.453125.457031.453125h11.824219c.25 0 .453125-.203125.453125-.453125v-9.550781l-5.457031-5.457031zm0 0" fill="url(#i)"/><path d="m8.1875 6.992188c-.253906 0-.457031.203124-.457031.457031v6.367187c0 .25.203125.453125.457031.453125h5.457031c.25 0 .453125-.203125.453125-.453125v-4.617187l-2.386718-2.207031zm4.28125 0 1.628906 1.503906v-1.046875c0-.253907-.203125-.457031-.453125-.457031zm0 0" fill="url(#j)"/><path d="m8.1875 6.992188c-.253906 0-.457031.203124-.457031.457031v.226562c0-.25.203125-.453125.457031-.453125h3.523438l2.386718 2.203125v-.226562l-2.386718-2.207031zm4.28125 0 .246094.230468h.929687c.25 0 .453125.203125.453125.453125v-.226562c0-.253907-.203125-.457031-.453125-.457031zm0 0" fill="#fff" fill-opacity=".392157"/><path d="m12.46875 7.335938 1.628906 1.503906v-.34375l-1.257812-1.160156zm-4.738281 6.480468v.339844c0 .253906.203125.457031.457031.457031h5.457031c.25 0 .453125-.203125.453125-.457031v-.339844c0 .25-.203125.453125-.453125.453125h-5.457031c-.253906 0-.457031-.203125-.457031-.453125zm0 0" fill-opacity=".235294"/><path d="m720.103068 614.973517c-22.33144 0-40.196593 17.865153-40.196593 40.196593v560.003818c0 21.987879 17.865153 39.853032 40.196593 39.853032h479.954192c21.98788 0 39.853032-17.865153 39.853032-39.853032v-406.088658l-209.915541-194.111753zm376.542444 0 143.26478 132.27084v-92.074247c0-22.33144-17.865152-40.196593-39.853032-40.196593zm0 0" fill="none" stroke="#212121" stroke-linecap="round" stroke-linejoin="round" stroke-width="11.338583" transform="scale(.0113699)"/><path d="m4.546875 1.992188c-.503906 0-.910156.40625-.910156.910156v.226562c0-.503906.40625-.910156.910156-.910156h7.621094l6.023437 6.023438v-.226563l-6.023437-6.023437zm9.550781 0 .226563.226562h2.957031c.503906 0 .910156.40625.910156.910156v-.226562c0-.503906-.40625-.910156-.910156-.910156zm0 0" fill="#fff" fill-opacity=".392157"/><path d="m5.003906 2.902344c-.253906 0-.457031.199218-.457031.453125v.339843c0-.25.203125-.453124.457031-.453124h6.820313l5.457031 5.457031v-.339844l-5.457031-5.457031zm0 0" fill-opacity=".235294"/><path d="m4.546875 17.925781v.214844c0 .25.203125.453125.457031.453125h11.824219c.25 0 .453125-.203125.453125-.453125v-.214844c0 .25-.203125.453125-.453125.453125h-11.824219c-.253906 0-.457031-.203125-.457031-.453125zm0 0" fill="#fff" fill-opacity=".392157"/><path d="m440.101159 255.265544c-22.33144 0-40.196593 17.521592-40.196593 39.853032v1280.106886c0 21.98788 17.865153 39.853032 40.196593 39.853032h1039.95801c21.98788 0 39.853032-17.865152 39.853032-39.853032v-840.005726l-479.954192-479.954192zm0 0" fill="none" stroke="#212121" stroke-linecap="round" stroke-linejoin="round" stroke-width="11.338583" transform="scale(.0113699)"/><path d="m14.097656 1.992188 4.09375 4.09375v-.222657l-3.871094-3.871093zm-10.460937 16.148437v.222656c0 .503907.40625.910157.910156.910157h12.734375c.503906 0 .910156-.40625.910156-.910157v-.222656c0 .503906-.40625.910156-.910156.910156h-12.734375c-.503906 0-.910156-.40625-.910156-.910156zm0 0" fill-opacity=".235294"/><path d="m399.904566 175.215918c-44.31932 0-80.049625 35.730305-80.049625 80.049626v1359.81295c0 44.31932 35.730305 80.049625 80.049625 80.049625h1120.007635c44.319321 0 80.049626-35.730305 80.049626-80.049625v-910.092093l-529.770483-529.770483zm840.005726 0 360.051535 360.051534v-280.001908c0-44.319321-35.730305-80.049626-80.049626-80.049626zm0 0" fill="none" stroke="#212121" stroke-linecap="round" stroke-linejoin="round" stroke-width="11.338583" transform="scale(.0113699)"/></svg>

<?xml version="1.0" encoding="UTF-8"?>
<svg xmlns="http://www.w3.org/2000/svg" xmlns:xlink="http://www.w3.org/1999/xlink" width="22px" height="22px" viewBox="0 0 22 22" version="1.1">
<defs>
<linearGradient id="linear0" gradientUnits="userSpaceOnUse" x1="254" y1="233.5" x2="254" y2="254.666672" gradientTransform="matrix(0.0511582,0,0,0.0429729,-1.808356,9.239165)">
<stop offset="0" style="stop-color:rgb(0%,0%,0%);stop-opacity:0.27451;"/>
<stop offset="1" style="stop-color:rgb(0%,0%,0%);stop-opacity:0;"/>
</linearGradient>
<radialGradient id="radial0" gradientUnits="userSpaceOnUse" cx="450.908936" cy="189.579361" fx="450.908936" fy="189.579361" r="21.166656" gradientTransform="matrix(0.000000119742,-0.0537161,-0.0966889,-0.0000000698078,34.702833,43.721791)">
<stop offset="0" style="stop-color:rgb(0%,0%,0%);stop-opacity:0.313726;"/>
<stop offset="0.222222" style="stop-color:rgb(0%,0%,0%);stop-opacity:0.27451;"/>
<stop offset="1" style="stop-color:rgb(0%,0%,0%);stop-opacity:0;"/>
</radialGradient>
<radialGradient id="radial1" gradientUnits="userSpaceOnUse" cx="450.908936" cy="189.579361" fx="450.908936" fy="189.579361" r="21.166656" gradientTransform="matrix(-0.000000119742,0.0537161,0.0966889,0.0000000698078,-12.872623,-5.175142)">
<stop offset="0" style="stop-color:rgb(0%,0%,0%);stop-opacity:0.313726;"/>
<stop offset="0.222222" style="stop-color:rgb(0%,0%,0%);stop-opacity:0.27451;"/>
<stop offset="1" style="stop-color:rgb(0%,0%,0%);stop-opacity:0;"/>
</radialGradient>
<radialGradient id="radial2" gradientUnits="userSpaceOnUse" cx="450.908936" cy="189.579361" fx="450.908936" fy="189.579361" r="21.166656" gradientTransform="matrix(-0.000000119742,-0.0537161,0.0966889,-0.0000000698078,-12.872623,43.721791)">
<stop offset="0" style="stop-color:rgb(0%,0%,0%);stop-opacity:0.313726;"/>
<stop offset="0.222222" style="stop-color:rgb(0%,0%,0%);stop-opacity:0.27451;"/>
<stop offset="1" style="stop-color:rgb(0%,0%,0%);stop-opacity:0;"/>
</radialGradient>
<radialGradient id="radial3" gradientUnits="userSpaceOnUse" cx="450.908936" cy="189.579361" fx="450.908936" fy="189.579361" r="21.166656" gradientTransform="matrix(0.000000119742,0.0537161,-0.0966889,0.0000000698078,34.702832,-5.175142)">
<stop offset="0" style="stop-color:rgb(0%,0%,0%);stop-opacity:0.313726;"/>
<stop offset="0.222222" style="stop-color:rgb(0%,0%,0%);stop-opacity:0.27451;"/>
<stop offset="1" style="stop-color:rgb(0%,0%,0%);stop-opacity:0;"/>
</radialGradient>
<linearGradient id="linear1" gradientUnits="userSpaceOnUse" x1="254" y1="233.5" x2="254" y2="-168.666672" gradientTransform="matrix(0.0429729,0,0,0.0429729,0,9.239163)">
<stop offset="0" style="stop-color:rgb(87.843138%,87.843138%,87.843138%);stop-opacity:1;"/>
<stop offset="1" style="stop-color:rgb(93.333334%,93.333334%,93.333334%);stop-opacity:1;"/>
</linearGradient>
<linearGradient id="linear2" gradientUnits="userSpaceOnUse" x1="413.712219" y1="-474.701691" x2="413.712219" y2="-72.535034" gradientTransform="matrix(0.0429729,0,0,0.0429729,0,9.239163)">
<stop offset="0" style="stop-color:rgb(38.039216%,38.039216%,38.039216%);stop-opacity:1;"/>
<stop offset="1" style="stop-color:rgb(45.882353%,45.882353%,45.882353%);stop-opacity:1;"/>
</linearGradient>
<linearGradient id="linear3" gradientUnits="userSpaceOnUse" x1="248.708328" y1="101.208344" x2="248.708328" y2="-300.958313" gradientTransform="matrix(0.0429729,0,0,0.0429729,0.227398,14.924113)">
<stop offset="0" style="stop-color:rgb(38.039216%,38.039216%,38.039216%);stop-opacity:1;"/>
<stop offset="1" style="stop-color:rgb(45.882353%,45.882353%,45.882353%);stop-opacity:1;"/>
</linearGradient>
</defs>
<g id="surface1">
<path style=" stroke:none;fill-rule:nonzero;fill:url(#linear0);" d="M 5.230469 19.273438 L 16.601562 19.273438 L 16.601562 20.183594 L 5.230469 20.183594 Z M 5.230469 19.273438 "/>
<path style=" stroke:none;fill-rule:nonzero;fill:url(#radial0);" d="M 16.601562 19.273438 L 18.417969 19.273438 L 18.417969 18.363281 L 16.601562 18.363281 Z M 16.601562 19.273438 "/>
<path style=" stroke:none;fill-rule:nonzero;fill:url(#radial1);" d="M 5.230469 19.273438 L 3.410156 19.273438 L 3.410156 20.183594 L 5.230469 20.183594 Z M 5.230469 19.273438 "/>
<path style=" stroke:none;fill-rule:nonzero;fill:url(#radial2);" d="M 5.230469 19.273438 L 3.410156 19.273438 L 3.410156 18.363281 L 5.230469 18.363281 Z M 5.230469 19.273438 "/>
<path style=" stroke:none;fill-rule:nonzero;fill:url(#radial3);" d="M 16.601562 19.273438 L 18.417969 19.273438 L 18.417969 20.183594 L 16.601562 20.183594 Z M 16.601562 19.273438 "/>
<path style=" stroke:none;fill-rule:nonzero;fill:url(#linear1);" d="M 13.683594 1.992188 L 4.546875 1.992188 C 4.042969 1.992188 3.636719 2.398438 3.636719 2.902344 L 3.636719 18.363281 C 3.636719 18.867188 4.042969 19.273438 4.546875 19.273438 L 17.28125 19.273438 C 17.785156 19.273438 18.191406 18.867188 18.191406 18.363281 L 18.191406 6.121094 Z M 13.683594 1.992188 "/>
<path style=" stroke:none;fill-rule:nonzero;fill:url(#linear2);" d="M 13.683594 1.992188 L 18.191406 6.121094 L 18.191406 2.902344 C 18.191406 2.398438 17.785156 1.992188 17.28125 1.992188 Z M 13.683594 1.992188 "/>
<path style=" stroke:none;fill-rule:nonzero;fill:rgb(0%,0%,0%);fill-opacity:0.235294;" d="M 3.636719 18.136719 L 3.636719 18.363281 C 3.636719 18.867188 4.042969 19.273438 4.546875 19.273438 L 17.28125 19.273438 C 17.785156 19.273438 18.191406 18.867188 18.191406 18.363281 L 18.191406 18.136719 C 18.191406 18.640625 17.785156 19.046875 17.28125 19.046875 L 4.546875 19.046875 C 4.042969 19.046875 3.636719 18.640625 3.636719 18.136719 Z M 3.636719 18.136719 "/>
<path style=" stroke:none;fill-rule:nonzero;fill:rgb(100%,100%,100%);fill-opacity:1;" d="M 4.546875 1.992188 C 4.042969 1.992188 3.636719 2.398438 3.636719 2.902344 L 3.636719 3.355469 C 3.636719 2.851562 4.042969 2.445312 4.546875 2.445312 L 13.683594 2.445312 L 18.191406 6.578125 L 18.191406 6.121094 L 13.683594 1.992188 Z M 4.546875 1.992188 "/>
<path style=" stroke:none;fill-rule:nonzero;fill:rgb(100%,100%,100%);fill-opacity:0.392157;" d="M 13.683594 1.992188 L 14.179688 2.445312 L 17.28125 2.445312 C 17.785156 2.445312 18.191406 2.851562 18.191406 3.355469 L 18.191406 2.902344 C 18.191406 2.398438 17.785156 1.992188 17.28125 1.992188 Z M 13.683594 1.992188 "/>
<path style=" stroke:none;fill-rule:nonzero;fill:rgb(0%,0%,0%);fill-opacity:0.235294;" d="M 13.683594 1.992188 L 18.191406 6.121094 L 18.191406 5.742188 L 14.097656 1.992188 Z M 13.683594 1.992188 "/>
<path style="fill:none;stroke-width:11.338583;stroke-linecap:round;stroke-linejoin:round;stroke:rgb(12.941177%,12.941177%,12.941177%);stroke-opacity:1;stroke-miterlimit:4;" d="M 1203.492866 175.215918 L 399.904566 175.215918 C 355.585246 175.215918 319.854941 210.946223 319.854941 255.265544 L 319.854941 1615.078494 C 319.854941 1659.397814 355.585246 1695.128119 399.904566 1695.128119 L 1519.912201 1695.128119 C 1564.231522 1695.128119 1599.961827 1659.397814 1599.961827 1615.078494 L 1599.961827 538.359498 Z M 1203.492866 175.215918 " transform="matrix(0.0113699,0,0,0.0113699,0,0)"/>
<path style="fill:none;stroke-width:3;stroke-linecap:round;stroke-linejoin:round;stroke:rgb(12.941177%,12.941177%,12.941177%);stroke-opacity:1;stroke-miterlimit:4;" d="M 318.424137 -168.640791 L 423.323211 -72.559057 L 423.323211 -147.460995 C 423.323211 -159.187148 413.869568 -168.640791 402.143415 -168.640791 Z M 318.424137 -168.640791 " transform="matrix(0.0429729,0,0,0.0429729,0,9.239163)"/>
<path style=" stroke:none;fill-rule:nonzero;fill:url(#linear3);" d="M 8.1875 6.992188 C 7.933594 6.992188 7.730469 7.195312 7.730469 7.449219 L 7.730469 13.816406 C 7.730469 14.066406 7.933594 14.269531 8.1875 14.269531 L 13.644531 14.269531 C 13.894531 14.269531 14.097656 14.066406 14.097656 13.816406 L 14.097656 9.199219 L 11.710938 6.992188 Z M 12.46875 6.992188 L 14.097656 8.496094 L 14.097656 7.449219 C 14.097656 7.195312 13.894531 6.992188 13.644531 6.992188 Z M 12.46875 6.992188 "/>
<path style=" stroke:none;fill-rule:nonzero;fill:rgb(100%,100%,100%);fill-opacity:0.392157;" d="M 8.1875 6.992188 C 7.933594 6.992188 7.730469 7.195312 7.730469 7.449219 L 7.730469 7.675781 C 7.730469 7.425781 7.933594 7.222656 8.1875 7.222656 L 11.710938 7.222656 L 14.097656 9.425781 L 14.097656 9.199219 L 11.710938 6.992188 Z M 12.46875 6.992188 L 12.714844 7.222656 L 13.644531 7.222656 C 13.894531 7.222656 14.097656 7.425781 14.097656 7.675781 L 14.097656 7.449219 C 14.097656 7.195312 13.894531 6.992188 13.644531 6.992188 Z M 12.46875 6.992188 "/>
<path style=" stroke:none;fill-rule:nonzero;fill:rgb(0%,0%,0%);fill-opacity:0.235294;" d="M 12.46875 7.335938 L 14.097656 8.839844 L 14.097656 8.496094 L 12.839844 7.335938 Z M 7.730469 13.816406 L 7.730469 14.15625 C 7.730469 14.410156 7.933594 14.613281 8.1875 14.613281 L 13.644531 14.613281 C 13.894531 14.613281 14.097656 14.410156 14.097656 14.15625 L 14.097656 13.816406 C 14.097656 14.066406 13.894531 14.269531 13.644531 14.269531 L 8.1875 14.269531 C 7.933594 14.269531 7.730469 14.066406 7.730469 13.816406 Z M 7.730469 13.816406 "/>
<path style="fill:none;stroke-width:11.338583;stroke-linecap:round;stroke-linejoin:round;stroke:rgb(12.941177%,12.941177%,12.941177%);stroke-opacity:1;stroke-miterlimit:4;" d="M 720.103068 614.973517 C 697.771628 614.973517 679.906475 632.83867 679.906475 655.17011 L 679.906475 1215.173928 C 679.906475 1237.161807 697.771628 1255.02696 720.103068 1255.02696 L 1200.05726 1255.02696 C 1222.04514 1255.02696 1239.910292 1237.161807 1239.910292 1215.173928 L 1239.910292 809.08527 L 1029.994751 614.973517 Z M 1096.645512 614.973517 L 1239.910292 747.244357 L 1239.910292 655.17011 C 1239.910292 632.83867 1222.04514 614.973517 1200.05726 614.973517 Z M 1096.645512 614.973517 " transform="matrix(0.0113699,0,0,0.0113699,0,0)"/>
</g>
</svg>
